assets/7_clubs.svg

<svg width="822" height="1122" fill="none" xmlns="http://www.w3.org/2000/svg"><rect width="822" height="1122" rx="50" fill="#F1F7EE"/><path d="M265.105 1027.2v20.6h30.3v-20.6h-5.3c-1 0-1.5-.5-1.5-1.5v-5.1c0-1 .5-1.5 1.5-1.5h21.8c1 0 1.5.5 1.5 1.5v5.1c0 1-.5 1.5-1.5 1.5h-5.3v51.9h5.3c1 0 1.5.5 1.5 1.5v4.9c0 1-.5 1.5-1.5 1.5h-21.8c-1 0-1.5-.5-1.5-1.5v-4.9c0-1 .5-1.5 1.5-1.5h5.3v-22.7h-30.3v22.7h5.3c1 0 1.5.5 1.5 1.5v4.9c0 1-.5 1.5-1.5 1.5h-21.8c-1 0-1.5-.5-1.5-1.5v-4.9c0-1 .5-1.5 1.5-1.5h5.3v-51.9h-5.3c-1 0-1.5-.5-1.5-1.5v-5.1c0-1 .5-1.5 1.5-1.5h21.8c1 0 1.5.5 1.5 1.5v5.1c0 1-.5 1.5-1.5 1.5h-5.3Zm78.817 61c-7.933 0-13.767-2.3-17.5-6.9-3.667-4.67-5.5-10.8-5.5-18.4 0-7.67 1.967-14 5.9-19 3.933-5 9.6-7.5 17-7.5 3.667 0 6.8.7 9.4 2.1 2.667 1.33 4.7 3.17 6.1 5.5 2.667 4.53 4 9.77 4 15.7 0 2.8-.133 4.33-.4 4.6-.267.27-.767.4-1.5.4h-29.4c.333 4.8 1.5 8.53 3.5 11.2 2.067 2.6 5.6 3.9 10.6 3.9 3.667 0 7.433-.87 11.3-2.6.933-.47 1.6-.2 2 .8l1.9 4.6c.333.8.033 1.47-.9 2-4.4 2.4-9.9 3.6-16.5 3.6Zm-11.9-30.9h20.8c.133-8.33-3.133-12.5-9.8-12.5-3.933 0-6.733 1.27-8.4 3.8-1.6 2.47-2.467 5.37-2.6 8.7Zm67.126 0v-3.5c0-4.73-1.334-7.7-4-8.9-1.267-.53-3.1-.8-5.5-.8-4.534 0-7.267 2.13-8.2 6.4-.2 1-.7 1.5-1.5 1.5h-6.4c-1.067 0-1.534-.5-1.4-1.5.266-4.87 2.233-8.43 5.9-10.7 3.666-2.27 8.333-3.4 14-3.4 11.933 0 17.9 5.47 17.9 16.4v26.3h4.3c1 0 1.5.5 1.5 1.5v4.9c0 1-.5 1.5-1.5 1.5h-11.8c-.867 0-1.367-.5-1.5-1.5l-.7-4.6c-3.6 4.87-8.8 7.3-15.6 7.3-4.267 0-7.8-1.1-10.6-3.3-2.8-2.27-4.2-5.87-4.2-10.8 0-6.47 2.7-10.9 8.1-13.3 4.466-2.07 9.8-3.2 16-3.4 1.266 0 3-.03 5.2-.1Zm.2 14.6v-7.7c-6.4 0-10.334.3-11.8.9-1.467.6-2.767 1.2-3.9 1.8-2.134 1.13-3.2 3.2-3.2 6.2 0 4.6 2.633 6.9 7.9 6.9 3.466 0 6.166-.8 8.1-2.4 1.933-1.67 2.9-3.57 2.9-5.7Zm32.914-33 11.6 37 10.5-30.2h-5.1c-1 0-1.5-.5-1.5-1.5v-5.2c0-1 .5-1.5 1.5-1.5h14.6c.8 0 1.333.23 1.6.7.266.47.4.9.4 1.3 0 .33-.067.67-.2 1l-17.1 45.1c-.267.93-.934 1.4-2 1.4h-8.6c-.934 0-1.6-.47-2-1.4l-13.7-39.9h-5c-1 0-1.5-.5-1.5-1.5v-5.2c0-1 .5-1.5 1.5-1.5h13.1c1 0 1.633.47 1.9 1.4Zm61.855 49.3c-7.933 0-13.766-2.3-17.5-6.9-3.666-4.67-5.5-10.8-5.5-18.4 0-7.67 1.967-14 5.9-19 3.934-5 9.6-7.5 17-7.5 3.667 0 6.8.7 9.4 2.1 2.667 1.33 4.7 3.17 6.1 5.5 2.667 4.53 4 9.77 4 15.7 0 2.8-.133 4.33-.4 4.6-.266.27-.766.4-1.5.4h-29.4c.334 4.8 1.5 8.53 3.5 11.2 2.067 2.6 5.6 3.9 10.6 3.9 3.667 0 7.434-.87 11.3-2.6.934-.47 1.6-.2 2 .8l1.9 4.6c.334.8.034 1.47-.9 2-4.4 2.4-9.9 3.6-16.5 3.6Zm-11.9-30.9h20.8c.134-8.33-3.133-12.5-9.8-12.5-3.933 0-6.733 1.27-8.4 3.8-1.6 2.47-2.466 5.37-2.6 8.7Zm36.826-13v-5.3c0-1 .5-1.5 1.5-1.5h13.6c.867 0 1.4.5 1.6 1.5l.9 5.8c3.733-5.6 9.067-8.4 16-8.4 10.333 0 15.5 5.67 15.5 17v25.7h5.8c1 0 1.5.5 1.5 1.5v4.9c0 1-.5 1.5-1.5 1.5h-21.8c-1 0-1.5-.5-1.5-1.5v-4.9c0-1 .5-1.5 1.5-1.5h4.8v-20.7c0-4.2-.533-7.27-1.6-9.2-1.067-1.93-3.267-2.9-6.6-2.9-3.333 0-6.1 1-8.3 3-2.2 2-3.3 4.27-3.3 6.8v23h6.2c1 0 1.5.5 1.5 1.5v4.9c0 1-.5 1.5-1.5 1.5h-22.7c-1 0-1.5-.5-1.5-1.5v-4.9c0-1 .5-1.5 1.5-1.5h5.3v-33.4h-5.4c-1 0-1.5-.47-1.5-1.4ZM161.259 106.5h-91.2c-2.2 0-3.7-.4-4.5-1.2-.8-.8-1.2-2.3-1.2-4.5V83.4c0-2.2.4-3.7 1.2-4.5.8-.8 2.3-1.2 4.5-1.2h120.9c2.2 0 3.7.4 4.5 1.2.8.8 1.2 2.3 1.2 4.5v13.2c0 4-.8 7.6-2.4 10.8l-75.9 158.4c-1.6 3.4-4.3 5.1-8.1 5.1h-22.5c-3.8 0-4.9-1.7-3.3-5.1l76.8-159.3Z" fill="#000"/><path d="m408.882 658.027-63.638 63.137c-3.169 3.144-.942 8.549 3.522 8.549h127.275c4.464 0 6.691-5.405 3.522-8.549l-63.638-63.137a5 5 0 0 0-7.043 0Z" fill="#231F20"/><circle cx="293.667" cy="571" r="59.667" fill="#393335"/><circle cx="532.333" cy="571" r="59.667" fill="#231F20"/><rect x="412.641" y="535.2" width="50.12" height="50.12" rx="5" transform="rotate(45 412.641 535.2)" fill="#231F20"/><mask id="a" style="mask-type:alpha" maskUnits="userSpaceOnUse" x="379" y="537" width="34" height="68"><path fill="#D9D9D9" d="M379.586 537.586h33.413v66.827h-33.413z"/></mask><g mask="url(#a)"><rect x="412.639" y="535.199" width="50.12" height="50.12" rx="5" transform="rotate(45 412.639 535.199)" fill="#393335"/></g><circle cx="413.001" cy="451.667" r="59.667" fill="#231F20"/><mask id="b" style="mask-type:alpha" maskUnits="userSpaceOnUse" x="353" y="392" width="60" height="120"><path fill="#D9D9D9" d="M353.334 392h59.667v119.333h-59.667z"/></mask><g mask="url(#b)"><circle cx="413.001" cy="451.667" r="59.667" fill="#393335"/></g><mask id="c" style="mask-type:alpha" maskUnits="userSpaceOnUse" x="343" y="656" width="69" height="74"><path fill="#D9D9D9" d="M343 656h69v74h-69z"/></mask><g mask="url(#c)"><path d="m408.882 658.027-63.638 63.137c-3.169 3.144-.942 8.549 3.522 8.549h127.275c4.464 0 6.691-5.405 3.522-8.549l-63.638-63.137a5 5 0 0 0-7.043 0Z" fill="#393335"/></g><path d="m130.424 398.731-16.311 16.182c-1.268 1.258-.377 3.42 1.409 3.42h32.622c1.785 0 2.676-2.162 1.408-3.42l-16.311-16.182a1.999 1.999 0 0 0-2.817 0Z" fill="#231F20"/><circle cx="98.667" cy="374" r="16.667" fill="#393335"/><circle cx="165.333" cy="374" r="16.667" fill="#231F20"/><path d="M130.486 365.414a2 2 0 0 1 2.829 0l7.071 7.071a2 2 0 0 1 0 2.829l-7.071 7.071a2 2 0 0 1-2.829 0l-7.071-7.071a2 2 0 0 1 0-2.829l7.071-7.071Z" fill="#231F20"/><mask id="d" style="mask-type:alpha" maskUnits="userSpaceOnUse" x="122" y="364" width="11" height="20"><path fill="#D9D9D9" d="M122.668 364.666h9.333v18.667h-9.333z"/></mask><g mask="url(#d)"><rect x="131.9" y="364" width="14" height="14" rx="2" transform="rotate(45 131.9 364)" fill="#393335"/></g><circle cx="132.001" cy="340.667" r="16.667" fill="#231F20"/><mask id="e" style="mask-type:alpha" maskUnits="userSpaceOnUse" x="115" y="324" width="17" height="34"><path fill="#D9D9D9" d="M115.332 324h16.667v33.333h-16.667z"/></mask><g mask="url(#e)"><circle cx="131.999" cy="340.667" r="16.667" fill="#393335"/></g><mask id="f" style="mask-type:alpha" maskUnits="userSpaceOnUse" x="112" y="397" width="20" height="22"><path fill="#D9D9D9" d="M112.447 397.743h19.274v20.67h-19.274z"/></mask><g mask="url(#f)"><path d="m130.424 398.731-16.311 16.182c-1.268 1.258-.377 3.42 1.409 3.42h32.622c1.785 0 2.676-2.162 1.408-3.42l-16.311-16.182a1.999 1.999 0 0 0-2.817 0Z" fill="#393335"/></g></svg>

<svg width="822" height="1122" viewBox="0 0 822 1122" fill="none" xmlns="http://www.w3.org/2000/svg">
<rect width="822" height="1122" rx="50" fill="#F1F7EE"/>
<path d="M265.105 1027.2V1047.8H295.405V1027.2H290.105C289.105 1027.2 288.605 1026.7 288.605 1025.7V1020.6C288.605 1019.6 289.105 1019.1 290.105 1019.1H311.905C312.905 1019.1 313.405 1019.6 313.405 1020.6V1025.7C313.405 1026.7 312.905 1027.2 311.905 1027.2H306.605V1079.1H311.905C312.905 1079.1 313.405 1079.6 313.405 1080.6V1085.5C313.405 1086.5 312.905 1087 311.905 1087H290.105C289.105 1087 288.605 1086.5 288.605 1085.5V1080.6C288.605 1079.6 289.105 1079.1 290.105 1079.1H295.405V1056.4H265.105V1079.1H270.405C271.405 1079.1 271.905 1079.6 271.905 1080.6V1085.5C271.905 1086.5 271.405 1087 270.405 1087H248.605C247.605 1087 247.105 1086.5 247.105 1085.5V1080.6C247.105 1079.6 247.605 1079.1 248.605 1079.1H253.905V1027.2H248.605C247.605 1027.2 247.105 1026.7 247.105 1025.7V1020.6C247.105 1019.6 247.605 1019.1 248.605 1019.1H270.405C271.405 1019.1 271.905 1019.6 271.905 1020.6V1025.7C271.905 1026.7 271.405 1027.2 270.405 1027.2H265.105ZM343.922 1088.2C335.989 1088.2 330.155 1085.9 326.422 1081.3C322.755 1076.63 320.922 1070.5 320.922 1062.9C320.922 1055.23 322.889 1048.9 326.822 1043.9C330.755 1038.9 336.422 1036.4 343.822 1036.4C347.489 1036.4 350.622 1037.1 353.222 1038.5C355.889 1039.83 357.922 1041.67 359.322 1044C361.989 1048.53 363.322 1053.77 363.322 1059.7C363.322 1062.5 363.189 1064.03 362.922 1064.3C362.655 1064.57 362.155 1064.7 361.422 1064.7H332.022C332.355 1069.5 333.522 1073.23 335.522 1075.9C337.589 1078.5 341.122 1079.8 346.122 1079.8C349.789 1079.8 353.555 1078.93 357.422 1077.2C358.355 1076.73 359.022 1077 359.422 1078L361.322 1082.6C361.655 1083.4 361.355 1084.07 360.422 1084.6C356.022 1087 350.522 1088.2 343.922 1088.2ZM332.022 1057.3H352.822C352.955 1048.97 349.689 1044.8 343.022 1044.8C339.089 1044.8 336.289 1046.07 334.622 1048.6C333.022 1051.07 332.155 1053.97 332.022 1057.3ZM399.148 1057.3V1053.8C399.148 1049.07 397.814 1046.1 395.148 1044.9C393.881 1044.37 392.048 1044.1 389.648 1044.1C385.114 1044.1 382.381 1046.23 381.448 1050.5C381.248 1051.5 380.748 1052 379.948 1052H373.548C372.481 1052 372.014 1051.5 372.148 1050.5C372.414 1045.63 374.381 1042.07 378.048 1039.8C381.714 1037.53 386.381 1036.4 392.048 1036.4C403.981 1036.4 409.948 1041.87 409.948 1052.8V1079.1H414.248C415.248 1079.1 415.748 1079.6 415.748 1080.6V1085.5C415.748 1086.5 415.248 1087 414.248 1087H402.448C401.581 1087 401.081 1086.5 400.948 1085.5L400.248 1080.9C396.648 1085.77 391.448 1088.2 384.648 1088.2C380.381 1088.2 376.848 1087.1 374.048 1084.9C371.248 1082.63 369.848 1079.03 369.848 1074.1C369.848 1067.63 372.548 1063.2 377.948 1060.8C382.414 1058.73 387.748 1057.6 393.948 1057.4C395.214 1057.4 396.948 1057.37 399.148 1057.3ZM399.348 1071.9V1064.2C392.948 1064.2 389.014 1064.5 387.548 1065.1C386.081 1065.7 384.781 1066.3 383.648 1066.9C381.514 1068.03 380.448 1070.1 380.448 1073.1C380.448 1077.7 383.081 1080 388.348 1080C391.814 1080 394.514 1079.2 396.448 1077.6C398.381 1075.93 399.348 1074.03 399.348 1071.9ZM432.262 1038.9L443.862 1075.9L454.362 1045.7H449.262C448.262 1045.7 447.762 1045.2 447.762 1044.2V1039C447.762 1038 448.262 1037.5 449.262 1037.5H463.862C464.662 1037.5 465.195 1037.73 465.462 1038.2C465.728 1038.67 465.862 1039.1 465.862 1039.5C465.862 1039.83 465.795 1040.17 465.662 1040.5L448.562 1085.6C448.295 1086.53 447.628 1087 446.562 1087H437.962C437.028 1087 436.362 1086.53 435.962 1085.6L422.262 1045.7H417.262C416.262 1045.7 415.762 1045.2 415.762 1044.2V1039C415.762 1038 416.262 1037.5 417.262 1037.5H430.362C431.362 1037.5 431.995 1037.97 432.262 1038.9ZM494.117 1088.2C486.184 1088.2 480.351 1085.9 476.617 1081.3C472.951 1076.63 471.117 1070.5 471.117 1062.9C471.117 1055.23 473.084 1048.9 477.017 1043.9C480.951 1038.9 486.617 1036.4 494.017 1036.4C497.684 1036.4 500.817 1037.1 503.417 1038.5C506.084 1039.83 508.117 1041.67 509.517 1044C512.184 1048.53 513.517 1053.77 513.517 1059.7C513.517 1062.5 513.384 1064.03 513.117 1064.3C512.851 1064.57 512.351 1064.7 511.617 1064.7H482.217C482.551 1069.5 483.717 1073.23 485.717 1075.9C487.784 1078.5 491.317 1079.8 496.317 1079.8C499.984 1079.8 503.751 1078.93 507.617 1077.2C508.551 1076.73 509.217 1077 509.617 1078L511.517 1082.6C511.851 1083.4 511.551 1084.07 510.617 1084.6C506.217 1087 500.717 1088.2 494.117 1088.2ZM482.217 1057.3H503.017C503.151 1048.97 499.884 1044.8 493.217 1044.8C489.284 1044.8 486.484 1046.07 484.817 1048.6C483.217 1051.07 482.351 1053.97 482.217 1057.3ZM519.043 1044.3V1039C519.043 1038 519.543 1037.5 520.543 1037.5H534.143C535.01 1037.5 535.543 1038 535.743 1039L536.643 1044.8C540.376 1039.2 545.71 1036.4 552.643 1036.4C562.976 1036.4 568.143 1042.07 568.143 1053.4V1079.1H573.943C574.943 1079.1 575.443 1079.6 575.443 1080.6V1085.5C575.443 1086.5 574.943 1087 573.943 1087H552.143C551.143 1087 550.643 1086.5 550.643 1085.5V1080.6C550.643 1079.6 551.143 1079.1 552.143 1079.1H556.943V1058.4C556.943 1054.2 556.41 1051.13 555.343 1049.2C554.276 1047.27 552.076 1046.3 548.743 1046.3C545.41 1046.3 542.643 1047.3 540.443 1049.3C538.243 1051.3 537.143 1053.57 537.143 1056.1V1079.1H543.343C544.343 1079.1 544.843 1079.6 544.843 1080.6V1085.5C544.843 1086.5 544.343 1087 543.343 1087H520.643C519.643 1087 519.143 1086.5 519.143 1085.5V1080.6C519.143 1079.6 519.643 1079.1 520.643 1079.1H525.943V1045.7H520.543C519.543 1045.7 519.043 1045.23 519.043 1044.3Z" fill="black"/>
<path d="M161.259 106.5H70.0594C67.8594 106.5 66.3594 106.1 65.5594 105.3C64.7594 104.5 64.3594 103 64.3594 100.8V83.4C64.3594 81.2 64.7594 79.7 65.5594 78.9C66.3594 78.1 67.8594 77.7 70.0594 77.7H190.959C193.159 77.7 194.659 78.1 195.459 78.9C196.259 79.7 196.659 81.2 196.659 83.4V96.6C196.659 100.6 195.859 104.2 194.259 107.4L118.359 265.8C116.759 269.2 114.059 270.9 110.259 270.9H87.7594C83.9594 270.9 82.8594 269.2 84.4594 265.8L161.259 106.5Z" fill="black"/>
<path d="M408.882 658.027L345.244 721.164C342.075 724.308 344.302 729.713 348.766 729.713H476.041C480.505 729.713 482.732 724.308 479.563 721.164L415.925 658.027C413.976 656.093 410.831 656.093 408.882 658.027Z" fill="#231F20"/>
<circle cx="293.667" cy="571" r="59.6667" fill="#393335"/>
<circle cx="532.333" cy="571" r="59.6667" fill="#231F20"/>
<rect x="412.641" y="535.2" width="50.12" height="50.12" rx="5" transform="rotate(45 412.641 535.2)" fill="#231F20"/>
<mask id="mask0_1023_5264" style="mask-type:alpha" maskUnits="userSpaceOnUse" x="379" y="537" width="34" height="68">
<rect x="379.586" y="537.586" width="33.4133" height="66.8267" fill="#D9D9D9"/>
</mask>
<g mask="url(#mask0_1023_5264)">
<rect x="412.639" y="535.199" width="50.12" height="50.12" rx="5" transform="rotate(45 412.639 535.199)" fill="#393335"/>
</g>
<circle cx="413.001" cy="451.667" r="59.6667" fill="#231F20"/>
<mask id="mask1_1023_5264" style="mask-type:alpha" maskUnits="userSpaceOnUse" x="353" y="392" width="60" height="120">
<rect x="353.334" y="392" width="59.6667" height="119.333" fill="#D9D9D9"/>
</mask>
<g mask="url(#mask1_1023_5264)">
<circle cx="413.001" cy="451.667" r="59.6667" fill="#393335"/>
</g>
<mask id="mask2_1023_5264" style="mask-type:alpha" maskUnits="userSpaceOnUse" x="343" y="656" width="69" height="74">
<rect x="343" y="656" width="69" height="74" fill="#D9D9D9"/>
</mask>
<g mask="url(#mask2_1023_5264)">
<path d="M408.882 658.027L345.244 721.164C342.075 724.308 344.302 729.713 348.766 729.713H476.041C480.505 729.713 482.732 724.308 479.563 721.164L415.925 658.027C413.976 656.093 410.831 656.093 408.882 658.027Z" fill="#393335"/>
</g>
<path d="M130.424 398.731L114.113 414.913C112.845 416.171 113.736 418.333 115.522 418.333H148.144C149.929 418.333 150.82 416.171 149.552 414.913L133.241 398.731C132.461 397.957 131.204 397.957 130.424 398.731Z" fill="#231F20"/>
<circle cx="98.6666" cy="374" r="16.6666" fill="#393335"/>
<circle cx="165.333" cy="374" r="16.6666" fill="#231F20"/>
<path d="M130.486 365.414C131.267 364.633 132.534 364.633 133.315 365.414L140.386 372.485C141.167 373.266 141.167 374.533 140.386 375.314L133.315 382.385C132.534 383.166 131.267 383.166 130.486 382.385L123.415 375.314C122.634 374.533 122.634 373.266 123.415 372.485L130.486 365.414Z" fill="#231F20"/>
<mask id="mask3_1023_5264" style="mask-type:alpha" maskUnits="userSpaceOnUse" x="122" y="364" width="11" height="20">
<rect x="122.668" y="364.666" width="9.3333" height="18.6666" fill="#D9D9D9"/>
</mask>
<g mask="url(#mask3_1023_5264)">
<rect x="131.9" y="364" width="14" height="14" rx="2" transform="rotate(45 131.9 364)" fill="#393335"/>
</g>
<circle cx="132.001" cy="340.667" r="16.6666" fill="#231F20"/>
<mask id="mask4_1023_5264" style="mask-type:alpha" maskUnits="userSpaceOnUse" x="115" y="324" width="17" height="34">
<rect x="115.332" y="324" width="16.6666" height="33.3332" fill="#D9D9D9"/>
</mask>
<g mask="url(#mask4_1023_5264)">
<circle cx="131.999" cy="340.667" r="16.6666" fill="#393335"/>
</g>
<mask id="mask5_1023_5264" style="mask-type:alpha" maskUnits="userSpaceOnUse" x="112" y="397" width="20" height="22">
<rect x="112.447" y="397.743" width="19.2737" height="20.6703" fill="#D9D9D9"/>
</mask>
<g mask="url(#mask5_1023_5264)">
<path d="M130.424 398.731L114.113 414.913C112.845 416.171 113.736 418.333 115.522 418.333H148.144C149.929 418.333 150.82 416.171 149.552 414.913L133.241 398.731C132.461 397.957 131.204 397.957 130.424 398.731Z" fill="#393335"/>
</g>
</svg>
